!!!COM: Palestrina, Giovanni Perluigi da
!!!OPR: Missa Tu es Petrus (1601)
!!!OTL: Sanctus
**kern	**kern	**kern	**kern	**kern	**kern
*Ibass	*Itenor	*Itenor	*Icalto	*Icalto	*Icant
!Bassus	!Tenor 2	!Tenor 1	!Altus 2	!Altus 1	!Cantus
*clefF4	*clefGv2	*clefGv2	*clefG2	*clefG2	*clefG2
*k[]	*k[]	*k[]	*k[]	*k[]	*k[]
*G:mix	*G:mix	*G:mix	*G:mix	*G:mix	*G:mix
*M4/2	*M4/2	*M4/2	*M4/2	*M4/2	*M4/2
=1	=1	=1	=1	=1	=1
0r	2.d	0r	0r	2.a	0dd
.	4e	.	.	4g	.
.	2f#	.	.	2a	.
.	[2g	.	.	2b	.
=2	=2	=2	=2	=2	=2
0r	4g]	0r	0r	4g	1b
.	4f#	.	.	4a	.
.	4g	.	.	4b	.
.	4e	.	.	4g	.
.	2f#	.	.	2a	1dd
.	2g	.	.	2b	.
=3	=3	=3	=3	=3	=3
0r	4c	0r	0r	1.cc	1ee
.	4d	.	.	.	.
.	4e	.	.	.	.
.	4f#	.	.	.	.
.	1g	.	.	.	1dd
.	.	.	.	4b	.
.	.	.	.	4a	.
=4	=4	=4	=4	=4	=4
2.G	0r	2.d	0g	1b	2r
.	.	.	.	.	1dd
4A	.	4c	.	.	.
2B	.	2d	.	1r	.
[2c	.	2e	.	.	2cc
=5	=5	=5	=5	=5	=5
4c]	0r	4c	1e	0r	1ee
4B	.	4d	.	.	.
4c	.	4e	.	.	.
4A	.	4c	.	.	.
2B	.	2d	1g	.	2dd
2c	.	2e	.	.	2cc
=6	=6	=6	=6	=6	=6
4F	1r	1.f	1a	0r	[0cc
4G	.	.	.	.	.
4A	.	.	.	.	.
4B	.	.	.	.	.
1c	2r	.	1g	.	.
.	[2c	4e	.	.	.
.	.	4d	.	.	.
=7	=7	=7	=7	=7	=7
1C	4c]	2e	2r	2.g	1cc]
.	4d	.	.	.	.
.	4e	2c	1g	.	.
.	4c	.	.	4a	.
2G	2d	2B	.	2b	1r
2C	2e	2G	2g	[2cc	.
=8	=8	=8	=8	=8	=8
1F	2f	1A	2.f	4cc]	0r
.	.	.	.	4b	.
.	2.a	.	.	4cc	.
.	.	.	4e	4a	.
2G	.	1r	2d	2b	.
.	4g	.	.	.	.
2C	[2g	.	2e	2cc	.
=9	=9	=9	=9	=9	=9
1D	2g]	0d	2.d	1a	2r
.	2f#	.	.	.	2a
.	.	.	4c	.	.
[1G	2.g	.	2B	1g	2.b
.	.	.	4G	.	.
.	8f	.	4A	.	4cc
.	8e	.	.	.	.
=10	=10	=10	=10	=10	=10
1G]	1d	1B	4B	2r	2dd
.	.	.	4c	.	.
.	.	.	4d	2g	2b
.	.	.	4e	.	.
1r	1r	1d	4f	2a	2a
.	.	.	4g	.	.
.	.	.	[2a	2f	[2dd
=11	=11	=11	=11	=11	=11
0r	1r	1e	4a]	1g	2dd]
.	.	.	4g	.	.
.	.	.	1g	.	2cc#
.	2r	[1d	.	1a	[1dd
.	2d	.	2f#	.	.
=12	=12	=12	=12	=12	=12
0G	2.B	1d]	0g	1g	2dd]
.	.	.	.	.	4g
.	4c	.	.	.	4a
.	1d	2r	.	1r	4b
.	.	.	.	.	4cc
.	.	2d	.	.	4dd
.	.	.	.	.	4b
=13	=13	=13	=13	=13	=13
1E	0G	2e	0r	0g	4cc
.	.	.	.	.	4dd
.	.	1c	.	.	2ee
1G	.	.	.	.	2dd
.	.	2B	.	.	[2ee
=14	=14	=14	=14	=14	=14
1A	4c	1c	0r	1e	4ee]
.	4d	.	.	.	4dd
.	4e	.	.	.	1cc
.	4c	.	.	.	.
1G	1d	2r	.	1g	.
.	.	2G	.	.	2b
=15	=15	=15	=15	=15	=15
1F	1f	2c	1r	1a	1cc
.	.	4A	.	.	.
.	.	4B	.	.	.
[1C	2.e	4c	2r	2g	2r
.	.	4d	.	.	.
.	.	4e	[2g	[2e	[2cc
.	4d	4f	.	.	.
=16	=16	=16	=16	=16	=16
1C]	1c	1g	4g]	4e]	4cc]
.	.	.	4g	4e	4cc
.	.	.	2e	2g	2cc
1r	1r	1r	2f	2a	2dd
.	.	.	2e	2b	2ee
=17	=17	=17	=17	=17	=17
0r	0r	0r	1c	4cc	4ee
.	.	.	.	4b	4dd
.	.	.	.	4a	4cc
.	.	.	.	4g	4b
.	.	.	2d	2f#	2.a
.	.	.	2e	[2g	.
.	.	.	.	.	4g
=18	=18	=18	=18	=18	=18
0r	2r	0r	1d	2g]	1.a
.	2.d	.	.	4f#	.
.	.	.	.	4e	.
.	.	.	1r	2f#	.
.	4d	.	.	.	.
.	2B	.	.	2g	2b
=19	=19	=19	=19	=19	=19
2r	2c	0r	2r	2e	2.g
2.G	2B	.	2.d	2d	.
.	.	.	.	.	4a
.	1G	.	.	1g	1b
4G	.	.	4d	.	.
2E	.	.	2e	.	.
=20	=20	=20	=20	=20	=20
2F	2A	2r	2d	0r	0r
2E	2B	2.g	1e	.	.
1C	1c	.	.	.	.
.	.	4g	.	.	.
.	.	2e	[2a	.	.
=21	=21	=21	=21	=21	=21
2D	1B	2f	2a]	0r	0r
2E	.	2e	2g#	.	.
2.F	2.A	1c	1a	.	.
4E	4G	.	.	.	.
=22	=22	=22	=22	=22	=22
2D	4A	2d	0r	1r	0r
.	4B	.	.	.	.
2C	1c	2e	.	.	.
2D	.	2f	.	2r	.
2G	2B	4e	.	[2g	.
.	.	4d	.	.	.
=23	=23	=23	=23	=23	=23
1C	1c	2e	2.cc	4g]	1r
.	.	.	.	4g	.
.	.	2c	.	2e	.
.	.	.	4cc	.	.
1r	1r	2d	2a	2f	2r
.	.	2g	2b	2e	[2gg
=24	=24	=24	=24	=24	=24
0r	0r	1e	2.cc	1c	4gg]
.	.	.	.	.	4gg
.	.	.	.	.	2ee
.	.	.	4b	.	.
.	.	1r	2a	2d	2ff
.	.	.	2g	2e	2ee
=25	=25	=25	=25	=25	=25
1r	1r	1r	2a	4f	2cc
.	.	.	.	4g	.
.	.	.	1cc	2a	2cc
2r	2r	2r	.	1g	2dd
[2G	[2g	[2d	4b	.	[2dd
.	.	.	4a	.	.
=26	=26	=26	=26	=26	=26
4G]	4g]	4d]	1b	2r	4dd]
4G	4g	4d	.	.	4dd
2G	2d	2B	.	2.G	2dd
2C	2e	2c	[1g	.	2cc
.	.	.	.	4A	.
[2G	2d	2B	.	4B	2dd
.	.	.	.	4c	.
=27	=27	=27	=27	=27	=27
2G]	4B	2G	1g]	2d	1.dd
.	4c	.	.	.	.
2G	4d	2B	.	1g	.
.	4e	.	.	.	.
1D	2d	1A	1a	.	.
.	2d	.	.	2f#	2dd
=28	=28	=28	=28	=28	=28
1G	1B	1G	1b	1g	1dd
2r	2r	2r	2r	1r	1r
2c	2e	2g	2cc	.	.
=29	=29	=29	=29	=29	=29
2c	2e	2g	2cc	0r	0r
2c	2e	2g	2cc	.	.
1G	2.d	1g	1b	.	.
.	4e	.	.	.	.
=30	=30	=30	=30	=30	=30
1d	4f	1f	1a	0r	0r
.	4g	.	.	.	.
.	1a	.	.	.	.
2.c	.	1e	[1cc	.	.
.	[2g	.	.	.	.
4B	.	.	.	.	.
=31	=31	=31	=31	=31	=31
1A	2g]	2.c	1cc]	0r	1r
.	2f#	.	.	.	.
.	.	4d	.	.	.
2.G	2g	2e	1b	.	2r
.	2G	[2d	.	.	2gg
4F	.	.	.	.	.
=32	=32	=32	=32	=32	=32
1E	2B	2d]	1g	0r	2gg
.	2c	1c	.	.	2gg
1D	1d	.	1r	.	1ff
.	.	2B	.	.	.
=33	=33	=33	=33	=33	=33
0C	1e	4c	2r	2r	2ee
.	.	4d	.	.	.
.	.	4e	2.c	2cc	2.gg
.	.	4f	.	.	.
.	2r	1g	.	2cc	.
.	.	.	4d	.	4ff
.	2g	.	4e	2cc	2ee
.	.	.	4f	.	.
=34	=34	=34	=34	=34	=34
0r	2g	1G	4g	1b	2dd
.	.	.	4a	.	.
.	2g	.	2b	.	1ee
.	1f	2r	2cc	1a	.
.	.	2d	[2a	.	2dd
=35	=35	=35	=35	=35	=35
0r	2e	2.c	4a]	0cc	1.ee
.	.	.	4g	.	.
.	1g	.	2g	.	.
.	.	4B	.	.	.
.	.	1A	1c	.	.
.	2f#	.	.	.	2a
=36	=36	=36	=36	=36	=36
2r	2g	2G	2r	1b	1dd
1G	1d	1B	1g	.	.
.	.	.	.	1g	1b
2G	2e	2B	2g	.	.
=37	=37	=37	=37	=37	=37
2.F	2f	1c	2a	0r	2r
.	1f	.	1a	.	1cc
4G	.	.	.	.	.
4A	.	1c	.	.	.
4B	.	.	.	.	.
2c	[2e	.	4g	.	2cc
.	.	.	4f	.	.
=38	=38	=38	=38	=38	=38
1G	4e]	1d	2.g	0r	1b
.	4d	.	.	.	.
.	1d	.	.	.	.
.	.	.	4f	.	.
1A	.	1r	1e	.	1a
.	2c#	.	.	.	.
=39	=39	=39	=39	=39	=39
0D	0d	1r	0f#	2r	1a
.	.	.	.	2a	.
.	.	2r	.	2a	2r
.	.	2d	.	2a	2dd
=40	=40	=40	=40	=40	=40
0r	0r	2d	1a	4f	2dd
.	.	.	.	4g	.
.	.	2d	.	4a	2dd
.	.	.	.	4b	.
.	.	4A	2a	2cc	4ee
.	.	4B	.	.	4dd
.	.	4c	2a	2cc	4ee
.	.	4d	.	.	4ff
=41	=41	=41	=41	=41	=41
0r	1g	4e	2g	1b	2gg
.	.	4f	.	.	.
.	.	2g	2b	.	2dd
.	2g	1c	2.cc	1e	4ee
.	.	.	.	.	4cc
.	2g	.	.	.	[2ee
.	.	.	4b	.	.
=42	=42	=42	=42	=42	=42
0r	2f	1d	0a	0r	4ee]
.	.	.	.	.	4dd
.	2f	.	.	.	1dd
.	1e	1A	.	.	.
.	.	.	.	.	2cc#
=43	=43	=43	=43	=43	=43
1G	1g	2d	1b	2r	[0dd
.	.	2B	.	2g	.
2G	2r	2B	2r	2g	.
2G	2d	2B	2g	2g	.
=44	=44	=44	=44	=44	=44
4D	2d	2A	2f	4a	1dd]
4E	.	.	.	4g	.
4F	2d	1a	2f	4a	.
4G	.	.	.	4b	.
4A	1c	.	2.e	2cc	2r
4B	.	.	.	.	.
2c	.	2g	.	2g	2cc
.	.	.	4d	.	.
=45	=45	=45	=45	=45	=45
1F	1A	2.f	1c	4a	2cc
.	.	.	.	4f	.
.	.	.	.	2.a	2cc
.	.	4e	.	.	.
1G	1B	[1d	1g	.	2.b
.	.	.	.	4g	.
.	.	.	.	[2g	.
.	.	.	.	.	4cc
=46	=46	=46	=46	=46	=46
0D	0A	0d]	0a	2g]	0dd
.	.	.	.	4f#	.
.	.	.	.	4e	.
.	.	.	.	1f#	.
=47	=47	=47	=47	=47	=47
0G	0G	0d	0b	0g	0dd
==	==	==	==	==	==
*-	*-	*-	*-	*-	*-
!!!CDT: 1525/^1526/-1594/2/2
!!!OCY: Italia
!!!AGN: Mass (Paraphrase)
!!!AST: renaissance, vocal
!!!ASW: Antiphon
!!!PWK: Masses, Book 12
!!!RNB: Cadence finals: C
!!!YOR: Le Opere Complete, v. 29, p. 123
!!!YOO: Rome, Italy: Fratelli Scalera
!!!END: 1992//
!!!EED: John Miller
!!!YEC: Copyright 2000, John Miller
!!!YEN: United States of America
!!!YEM: Rights to all derivative electronic formats reserved.
!!!YEM: Refer to licensing agreement for further details.
!!!YEM: This file must be accompanied by the licensing agreement.
!!!YEM: A copy of the licensing agreement may be found at http://www.music-cog.ohio-state.edu/HumdrumDatabases/Palestrina/license.txt
!!!EMD: converted to Humdrum by Bret Aarden
